img/icons/phone.svg

<svg xmlns="http://www.w3.org/2000/svg" width="12.613" height="20.18" viewBox="0 0 12.613 20.18"><g id="phone" transform="translate(-14.75 -5)" fill="#707070" fill-rule="evenodd"><path id="Path_75" data-name="Path 75" d="M16.84 1.261H9.273a1.261 1.261 0 00-1.262 1.262v15.135a1.261 1.261 0 001.261 1.261h7.568a1.261 1.261 0 001.26-1.261V2.523a1.261 1.261 0 00-1.26-1.262zM9.273 0A2.523 2.523 0 006.75 2.523v15.135a2.523 2.523 0 002.523 2.522h7.567a2.523 2.523 0 002.523-2.523V2.523A2.523 2.523 0 0016.84 0z" transform="translate(8 5)"/><path id="Path_76" data-name="Path 76" d="M16.934 29.368a1.184 1.184 0 10-1.184-1.184 1.184 1.184 0 001.184 1.184z" transform="translate(4.122 -6.754)"/></g></svg>

<svg xmlns="http://www.w3.org/2000/svg" width="12.613" height="20.18" viewBox="0 0 12.613 20.18">
  <g id="phone" transform="translate(-14.75 -5)">
    <path id="Path_75" data-name="Path 75" d="M16.84,1.261H9.273A1.261,1.261,0,0,0,8.011,2.523V17.658a1.261,1.261,0,0,0,1.261,1.261H16.84A1.261,1.261,0,0,0,18.1,17.658V2.523A1.261,1.261,0,0,0,16.84,1.261ZM9.273,0A2.523,2.523,0,0,0,6.75,2.523V17.658A2.523,2.523,0,0,0,9.273,20.18H16.84a2.523,2.523,0,0,0,2.523-2.523V2.523A2.523,2.523,0,0,0,16.84,0Z" transform="translate(8 5)" fill="#707070" fill-rule="evenodd"/>
    <path id="Path_76" data-name="Path 76" d="M16.934,29.368a1.184,1.184,0,1,0-1.184-1.184A1.184,1.184,0,0,0,16.934,29.368Z" transform="translate(4.122 -6.754)" fill="#707070" fill-rule="evenodd"/>
  </g>
</svg>
